X: 1
T: Missa Cela sans plus / Kyrie
N: Derived from Mar1001a-Missa_Cela_sans_plus-Kyrie.krn
C: Johannes Martini
%%abc-version 2.0
%%abcx-abcm2ps-target-version 5.9.1 (29 Sep 2008)
%%abc-creator hum2abc beta
%%abcx-conversion-date 2019/02/17 07:19:40
%%abc-edited-by Jesse Rodin
%%abc-edited-by Chris Gage 10-23-2013
%%abcx-initial-encoding-date 2013/10/27/
%%humdrum-veritas 3504406606
%%humdrum-veritas-data 799289563
%%linebreak <none>
%%barnumbers 0
L: 1/4
M: 4/2
Q: 1/2=120
%%staves [1 2 3 4]
V: 1 clef=treble
V: 2 clef=treble-8
V: 3 clef=treble-8
V: 4 clef=bass
K: C
[V:1] z8 | 
[V:2] d8 | 
[V:3] z8 | 
[V:4] D,6F,2- | 
[V:1] z8 | 
[V:2] c4B4 | 
[V:3] z8 | 
[V:4] F,E,A,4G,2 | 
[V:1] A8 | 
[V:2] A3Bc2d2- | 
[V:3] z8 | 
[V:4] A,2F,4D,2 | 
[V:1] G4F4 | 
[V:2] d2^c2d4 | 
[V:3] z8 | 
[V:4] E,4D,4 | 
[V:1] E4z2E2- | 
[V:2] c8 | 
[V:3] A8 | 
[V:4] A,,6C,2- | 
[V:1] EFG2A2F2 | 
[V:2] c4d4 | 
[V:3] G4F4 | 
[V:4] C,D,E,2D,4 | 
[V:1] G3FEDE2- | 
[V:2] e3dB2c2- | 
[V:3] E8 | 
[V:4] G,6C,2- | 
[V:1] E2DCB,2C2 | 
[V:2] c2BAG2E2 | 
[V:3] G8 | 
[V:4] C,2D,2E,4 | 
[V:1] D2A,4D2 | 
[V:2] A2d3cBA | 
[V:3] F8 | 
[V:4] D,8 | 
[V:1] E2C3B,C2 | 
[V:2] c2BAG4 | 
[V:3] E8 | 
[V:4] C,4z2C,2 | 
[V:1] D4F4 | 
[V:2] A4z2d2- | 
[V:3] D8 | 
[V:4] F,3G,A,4 | 
[V:1] G2A4_B2 | 
[V:2] d2c2d3c | 
[V:3] z4D4 | 
[V:4] _B,2A,2F,4 | 
[V:1] A2GFE4 | 
[V:2] A4z2E2 | 
[V:3] F4G2A2- | 
[V:4] D,4C,2A,,2- | 
[V:1] C2D2E2F2 | 
[V:2] F2G2E2D2 | 
[V:3] A2B2A2GF | 
[V:4] A,,2G,,2C,2D,2 | 
[V:1] G2E3DD2- | 
[V:2] GAB2c2A2- | 
[V:3] E2G2A2F2 | 
[V:4] E,4A,,2D,2 | 
[V:1] D2^C2D4- | 
[V:2] A2A2A4 | 
[V:3] E4D4- | 
[V:4] A,,4A,4- | 
[V:1] D8 ||  
[V:2] A8 ||  
[V:3] D8 ||  
[V:4] A,8 ||  
[V:1]  [K:C] [K:clef=treble][M:4/2]z8 | 
[V:2]  [K:C] [K:clef=treble-8][M:4/2]G8 | 
[V:3]  [K:C] [K:clef=treble-8][M:4/2]z8 | 
[V:4]  [K:C] [K:clef=bass][M:4/2]z8 | 
[V:1] z8 | 
[V:2] G4A4 | 
[V:3] z8 | 
[V:4] z8 | 
[V:1] z8 | 
[V:2] B6G2 | 
[V:3] z8 | 
[V:4] G,,8 | 
[V:1] z8 | 
[V:2] B4c4 | 
[V:3] z8 | 
[V:4] G,,4A,,4 | 
[V:1] z8 | 
[V:2] d4d2B2- | 
[V:3] z8 | 
[V:4] B,,6G,,2 | 
[V:1] z8 | 
[V:2] B2AGA3G | 
[V:3] z8 | 
[V:4] B,,4C,4 | 
[V:1] z8 | 
[V:2] FEF4D2- | 
[V:3] z8 | 
[V:4] C,6B,,2- | 
[V:1] z8 | 
[V:2] D2G4^F2 | 
[V:3] z8 | 
[V:4] B,,2A,,G,,A,,4 | 
[V:1] G8 | 
[V:2] GABcd2e2- | 
[V:3] z8 | 
[V:4] G,,3A,,B,,2C,2- | 
[V:1] G4A4 | 
[V:2] edg4^f2 | 
[V:3] z8 | 
[V:4] C,D,E,2D,4 | 
[V:1] B6G2 | 
[V:2] g2d4e2- | 
[V:3] G8 | 
[V:4] G,,4z4 | 
[V:1] B4c4 | 
[V:2] e2d2c3B | 
[V:3] G4A4 | 
[V:4] z8 | 
[V:1] d6B2- | 
[V:2] G4d4- | 
[V:3] B8 | 
[V:4] G,4G,4- | 
[V:1] B2A2G4 | 
[V:2] d4e4 | 
[V:3] B4c4 | 
[V:4] G,2F,2E,4 | 
[V:1] F2GA_B2A2- | 
[V:2] A4z2A2- | 
[V:3] d8 | 
[V:4] D,6F,2- | 
[V:1] A2GFE2G2- | 
[V:2] A2B2c2G2- | 
[V:3] d4c4 | 
[V:4] F,2G,2A,2E,2- | 
[V:1] GAB3Ac2- | 
[V:2] G2d4e2 | 
[V:3] B4G4 | 
[V:4] E,F,G,3F,E,D, | 
[V:1] cBAG^F3E | 
[V:2] d2c2d4 | 
[V:3] A8 | 
[V:4] F,2E,2D,4 | 
[V:1] G8 ||  
[V:2] d8 ||  
[V:3] G8 ||  
[V:4] G,,8 ||  
[V:1]  [K:C] [K:clef=treble][M:4/2]z8 | 
[V:2]  [K:C] [K:clef=treble-8][M:4/2]d4d4- | 
[V:3]  [K:C] [K:clef=treble-8][M:4/2]d6c2 | 
[V:4]  [K:C] [K:clef=bass][M:4/2]G,8 | 
[V:1] z8 | 
[V:2] d2e2f4 | 
[V:3] B4A4 | 
[V:4] G,4D,4 | 
[V:1] d6c2 | 
[V:2] g4d2f2- | 
[V:3] G4B2A2- | 
[V:4] G,,4z4 | 
[V:1] B4A4 | 
[V:2] f2e4d2- | 
[V:3] A2G2F2D2 | 
[V:4] z8 | 
[V:1] G4B2A2- | 
[V:2] d2^c2d4 | 
[V:3] E4D4 | 
[V:4] z4D,4 | 
[V:1] A2G2F2D2 | 
[V:2] e4A4 | 
[V:3] z4d4 | 
[V:4] C,4D,4 | 
[V:1] E4D3E | 
[V:2] z4A4 | 
[V:3] c4d4 | 
[V:4] A,4D,4 | 
[V:1] F2G2A2B2- | 
[V:2] d4A4 | 
[V:3] A2B2c2d2- | 
[V:4] D,8 | 
[V:1] B2AG^F3E | 
[V:2] d6c2 | 
[V:3] d2cBA4 | 
[V:4] z4D,4 | 
[V:1] G8 | 
[V:2] B4G4 | 
[V:3] G4E3F | 
[V:4] E,2G,3F,E,2- | 
[V:1] z8 | 
[V:2] z8 | 
[V:3] G2A2B2A2- | 
[V:4] E,2D,4C,2 | 
[V:1] z8 | 
[V:2] z8 | 
[V:3] AGG4^F2 | 
[V:4] D,2B,,2A,,4 | 
[V:1] G8 | 
[V:2] z8 | 
[V:3] G8 | 
[V:4] G,,8 | 
[V:1] A4F4 | 
[V:2] d8 | 
[V:3] z8 | 
[V:4] D,8 | 
[V:1] E8 | 
[V:2] e4c4 | 
[V:3] z8 | 
[V:4] C,6D,2 | 
[V:1] G8 | 
[V:2] B8 | 
[V:3] G8 | 
[V:4] E,8 | 
[V:1] F4D4 | 
[V:2] d8 | 
[V:3] A4F4 | 
[V:4] D,8 | 
[V:1] E8 | 
[V:2] c4A4 | 
[V:3] E8 | 
[V:4] A,,4C,4 | 
[V:1] D4E4 | 
[V:2] B4c4 | 
[V:3] G8 | 
[V:4] G,,4C,4 | 
[V:1] D2F3ED2- | 
[V:2] A8- | 
[V:3] F4D4 | 
[V:4] D,8 | 
[V:1] D2^CB,C4 | 
[V:2] A8- | 
[V:3] E8 | 
[V:4] A,,8 | 
[V:1] D8 |]  
[V:2] A8 |]  
[V:3] D8 |]  
[V:4] A,8 |]  



